!!!!SEGMENT: pl-sa--303-a-vii-63--001_lechleitner-ferdinand-simon-o-beata-scholastica-alto-solo.krn
!!!id: 17xx:403
!!!COM: Lechleitner, Ferdinand Simon
!!!OTL: O Beata Scholastica – Alto Solo
!!!PDT:
!!!SMS-siglum: PL-SA
!!!SMS-shelfmark: 303/A VII 63
!!!NIFC-rismID: 1001039510
!!!URL-scan: http://bc.bdsandomierz.pl/dlibra/publication/1608/edition/1576/content
!!!ONB-nifc: UWAGA: części: Alto Solo (O Beata Scholastica), Columba Christi unica, Tutti Chorus (O Beata Scholastica)
**kern	**fb	**kern	**kern	**kern	**kern	**kern	**kern	**text	**kern	**kern	**kern
*part10	*	*part9	*part8	*part7	*part6	*part5	*part4	*part4	*part3	*part2	*part1
*group	*	*group3	*group3	*group3	*group2	*group2	*group2	*group2	*group2	*group1	*group1
*staff10	*	*staff9	*staff8	*staff7	*staff6	*staff5	*staff4	*staff4	*staff3	*staff2	*staff1
*I"Organo.	*	*I"Alto Viola Obligata.	*I"Violino 2.do	*I"Violino 1.mo	*I"Baſso.	*I"Tenore.	*I"Alto.	*	*I"Canto.	*I"Clarino 2.do	*I"Clarino 1.mo
*I'org	*	*I'vl	*I'vn 2	*I'vn 1	*I'B	*I'T	*I'A	*	*I'S	*I'Clar 2	*I'Clar 1
*clefF4	*	*clefC3	*clefG2	*clefG2	*clefF4	*clefC4	*clefC3	*	*clefC1	*clefG2	*clefG2
*k[]	*	*k[]	*k[]	*k[]	*k[]	*k[]	*k[]	*	*k[]	*k[]	*k[]
*M3/4	*	*M3/4	*M3/4	*M3/4	*M3/4	*M3/4	*M3/4	*	*M3/4	*M3/4	*M3/4
=1	=1	=1	=1	=1	=1	=1	=1	=1	=1	=1	=1
*	*above	*	*	*	*	*	*	*	*	*	*
!LO:TX:a:i:t=ſolo.	!	!	!LO:TX:b:i:t=O Beata ſcholaſtica.	!LO:TX:b:i:t=O Beata ſcholaſtica.	!	!LO:TX:a:t=P:problem:w źródle "Alto Solo Tacet." zapisane na pięciolinii	!	!	!LO:TX:a:t=P:problem:w źródle "Alto Solo Tacet." zapisane na pięciolinii	!	!
!	!	!LO:TX:a:t=P:problem:w źródle "Alto Solo Tacet." zapisane na pięciolinii	!	!	!	!	!	!	!	!	!
!LO:TX:b:i:t=O Beata ſcholaſtica.	!	!LO:TX:a:i:t=Alto ſolo \nTacet.	!LO:TX:a:i:t=Solo.	!LO:TX:a:i:t=ſolo.	!LO:TX:a:i:t=Alto ſolo \nTacet.	!LO:TX:a:i:t=Alto ſolo \nTacet.	!	!	!LO:TX:a:i:t=Alto ſolo \nTacet.	!LO:TX:a:i:t=ſolo.	!LO:TX:a:i:t=ſolo.
!LO:TX:a:i:t=Legerement.	!	!LO:TX:b:i:t=O Beata ſcholaſtica.	!LO:TX:a:i:t=Legerement.	!LO:TX:a:i:t=Legerement.	!LO:TX:b:i:t=O Beata ſcholaſtica.	!LO:TX:b:i:t=O Beata ſcholaſtica.	!LO:TX:a:i:t=Legerement. ſolo	!	!LO:TX:b:i:t=O beata ſcholaſtica.	!LO:TX:b:i:t=O Beata ſcholaſtica.	!LO:TX:b:i:t=O Beata ſcholaſtica.
!	!	!	!	!	!	!	!LO:N:vis=00	!	!	!LO:N:vis=00	!LO:N:vis=00
2C/	.	2.ryy	8cc\L	8cc\L	2.ryy	2.ryy	0.r	.	2.ryy	0.r	0.r
.	.	.	16cc\L	16cc\L	.	.	.	.	.	.	.
.	.	.	16dd\JJ	16dd\JJ	.	.	.	.	.	.	.
!	!	!	!LO:TX:a:t=P:problem:mixed beam	!LO:TX:a:t=P:problem:mixed beam	!	!	!	!	!	!	!
.	.	.	8cc\L	8cc\L	.	.	.	.	.	.	.
.	.	.	8c/J	8c/J	.	.	.	.	.	.	.
4c\	.	.	8cc\L	8cc\L	.	.	.	.	.	.	.
.	.	.	16b\L	16b\L	.	.	.	.	.	.	.
.	.	.	16cc\JJ	16cc\JJ	.	.	.	.	.	.	.
=2	=2	=2	=2	=2	=2	=2	=2	=2	=2	=2	=2
4B\	X 3	2.ryy	8dd\L	8dd\L	2.ryy	2.ryy	.	.	2.ryy	.	.
.	.	.	16dd\L	16dd\L	.	.	.	.	.	.	.
.	.	.	16ee\JJ	16ee\JJ	.	.	.	.	.	.	.
!	!	!	!LO:TX:a:t=P:problem:mixed beam	!LO:TX:a:t=P:problem:mixed beam	!	!	!	!	!	!	!
4A\	X 4	.	8dd\L	8dd\L	.	.	.	.	.	.	.
.	.	.	8d/J	8d/J	.	.	.	.	.	.	.
4G\	.	.	8b/L	8dd\L	.	.	.	.	.	.	.
.	.	.	16a/L	16cc\L	.	.	.	.	.	.	.
.	.	.	16b/JJ	16dd\JJ	.	.	.	.	.	.	.
=3	=3	=3	=3	=3	=3	=3	=3	=3	=3	=3	=3
8C/L	.	2.ryy	8cc\L	8ee\	2.ryy	2.ryy	.	.	2.ryy	.	.
16C/L	.	.	16ee\L	4gg\	.	.	.	.	.	.	.
16D/JJ	.	.	16dd\JJ	.	.	.	.	.	.	.	.
8C/L	.	.	8ee\	.	.	.	.	.	.	.	.
8CC/J	X 7-	.	4g/	4b-X/	.	.	.	.	.	.	.
8C/L	.	.	.	.	.	.	.	.	.	.	.
8C/J	.	.	16f/LL	16a/LL	.	.	.	.	.	.	.
.	.	.	16e/JJ	16g/JJ	.	.	.	.	.	.	.
!	!	!	!LO:LB:g=original	!	!	!	!	!	!	!	!
=4	=4	=4	=4	=4	=4	=4	=4	=4	=4	=4	=4
8F\L	.	2.ryy	8f/	8a/	2.ryy	2.ryy	.	.	2.ryy	.	.
16D\L	X #	.	16ff#X\LL	4aa\	.	.	.	.	.	.	.
16E\JJ	X :	.	16ee\JJ	.	.	.	.	.	.	.	.
!LO:TX:a:t=P:problem:mixed beam	!	!	!	!	!	!	!	!	!	!	!
8D\L	7 #	.	8ff#\	.	.	.	.	.	.	.	.
8DD/J	.	.	4a/	4cc\	.	.	.	.	.	.	.
8D\L	7 #	.	.	.	.	.	.	.	.	.	.
8D\J	.	.	16g/LL	16bn/LL	.	.	.	.	.	.	.
.	.	.	16f#X/JJ	16a/JJ	.	.	.	.	.	.	.
!	!	!	!	!LO:LB:g=original	!	!	!	!	!	!	!
=5	=5	=5	=5	=5	=5	=5	=5	=5	=5	=5	=5
!	!	!	!	!	!	!	!LO:N:vis=00	!	!	!LO:N:vis=0	!LO:N:vis=0
4G\	.	2.ryy	8g/L	8b\L	2.ryy	2.ryy	0.r	.	2.ryy	1.r	1.r
.	.	.	16b/L	16dd\L	.	.	.	.	.	.	.
.	.	.	16a/JJ	16cc\JJ	.	.	.	.	.	.	.
4GG/	7n 5	.	8b\L	8dd\L	.	.	.	.	.	.	.
.	.	.	16dd\L	16ff\L	.	.	.	.	.	.	.
.	.	.	16cc\JJ	16ee\JJ	.	.	.	.	.	.	.
4G\	: :	.	8dd\L	8ff\L	.	.	.	.	.	.	.
.	.	.	8b\J	8b\J	.	.	.	.	.	.	.
=6	=6	=6	=6	=6	=6	=6	=6	=6	=6	=6	=6
!	!	!	!	!LO:TX:a:t=P:problem:mixed beam	!	!	!	!	!	!	!
4F\	X 3	2.ryy	4cc\	8ff\L	2.ryy	2.ryy	.	.	2.ryy	.	.
.	.	.	.	8a/J	.	.	.	.	.	.	.
!	!	!	!	!LO:TX:a:t=P:problem:mixed beam	!	!	!	!	!	!	!
4E\	X 6	.	4cc\	8ff\L	.	.	.	.	.	.	.
.	.	.	.	8g/J	.	.	.	.	.	.	.
!	!	!	!	!LO:TX:a:t=P:problem:mixed beam	!	!	!	!	!	!	!
4D/	X 6	.	4b/	8ff\L	.	.	.	.	.	.	.
.	.	.	.	8f/J	.	.	.	.	.	.	.
!LO:LB:g=original	!	!	!	!	!	!	!	!	!	!	!
=7	=7	=7	=7	=7	=7	=7	=7	=7	=7	=7-	=7-
!	!	!	!	!LO:TX:a:t=P:problem:mixed beam	!	!	!	!	!	!	!
2C/	.	2.ryy	8cc\L	8e/L	2.ryy	2.ryy	.	.	2.ryy	8e/L	8cc\L
.	.	.	16cc\L	16cc\L	.	.	.	.	.	16e/L	16cc\L
.	.	.	16dd\JJ	16dd\JJ	.	.	.	.	.	16g/JJ	16dd\JJ
!	!	!	!LO:TX:a:t=P:problem:mixed beam	!LO:TX:a:t=P:problem:mixed beam	!	!	!	!	!	!	!
.	.	.	8cc\L	8cc\L	.	.	.	.	.	8e/L	8cc\L
.	.	.	8c/J	8c/J	.	.	.	.	.	8c/J	8g\J
4c\	.	.	8cc\L	8cc\L	.	.	.	.	.	8e/L	8cc\L
.	.	.	16b\L	16b\L	.	.	.	.	.	16g/L	16dd\L
.	.	.	16cc\JJ	16cc\JJ	.	.	.	.	.	16e/JJ	16cc\JJ
=8	=8	=8	=8	=8	=8	=8	=8	=8	=8	=8	=8
4B\	X 6	2.ryy	8dd\L	8dd\L	2.ryy	2.ryy	.	.	2.ryy	8g/L	8dd\L
.	.	.	16dd\L	16dd\L	.	.	.	.	.	16g/L	16dd\L
.	.	.	16ee\JJ	16ee\JJ	.	.	.	.	.	16g/JJ	16ee\JJ
!	!	!	!LO:SIC:custos dd:v	!	!	!	!	!	!	!	!
!	!	!	!LO:LB:g=original	!	!	!	!	!	!	!	!
!	!	!	!LO:TX:a:t=P:problem:mixed beam	!LO:TX:a:t=P:problem:mixed beam	!	!	!	!	!	!	!
4A\	X 4	.	8dd\L	8dd\L	.	.	.	.	.	8g/L	8dd\L
.	.	.	8d/J	8d/J	.	.	.	.	.	8g/J	8g\J
4G\	.	.	8dd\L	8dd\L	.	.	.	.	.	8g/L	8dd\L
.	.	.	16cc\L	16cc\L	.	.	.	.	.	16e/L	16cc\L
.	.	.	16dd\JJ	16dd\JJ	.	.	.	.	.	16g/JJ	16dd\JJ
=9	=9	=9	=9	=9	=9	=9	=9	=9	=9	=9	=9
*2\right	*	*	*	*	*	*	*	*	*	*	*
!	!	!	!	!	!	!	!LO:N:vis=0	!	!	!	!
2c\	.	2.ryy	8ee\L	8ee\L	2.ryy	2.ryy	1.r	.	2.ryy	4cc\	4ee\
.	.	.	16ee\L	16gg\L	.	.	.	.	.	.	.
.	.	.	16ff\JJ	16ff\JJ	.	.	.	.	.	.	.
.	.	.	16gg\LL	16ee\LL	.	.	.	.	.	4r	4r
.	.	.	16ff\	16dd\	.	.	.	.	.	.	.
.	.	.	16ee\	16cc\	.	.	.	.	.	.	.
.	.	.	16dd\JJ	16b\JJ	.	.	.	.	.	.	.
4C/	.	.	16ee\LL	16cc\LL	.	.	.	.	.	4r	4r
.	.	.	16dd\	16b\	.	.	.	.	.	.	.
.	.	.	16cc\	16a\	.	.	.	.	.	.	.
.	.	.	16b\JJ	16g\JJ	.	.	.	.	.	.	.
=10	=10	=10	=10	=10	=10	=10	=10	=10	=10	=10	=10
2F\	.	2.ryy	16cc\LL	16a/LL	2.ryy	2.ryy	.	.	2.ryy	4r	4r
.	.	.	16b\	16g/	.	.	.	.	.	.	.
.	.	.	16a\	16f/	.	.	.	.	.	.	.
!	!	!	!	!LO:SIC:custos f:v	!	!	!	!	!	!	!
.	.	.	16g\JJ	16e/JJ	.	.	.	.	.	.	.
!	!	!	!	!LO:LB:g=original	!	!	!	!	!	!	!
.	.	.	16f/LL	16f/LL	.	.	.	.	.	8r	8r
.	.	.	16e/	16e/	.	.	.	.	.	.	.
!	!	!	!	!	!	!	!	!	!	!LO:TX:a:t=P:problem:mixed beam	!
.	.	.	16d/	16d/	.	.	.	.	.	8g/L	8cc\L
.	.	.	16c/JJ	16c/JJ	.	.	.	.	.	.	.
4BB/	X 6	.	8e/L	8g/L	.	.	.	.	.	8ee\	8gg\
.	X 5	.	8d/J	8f/J	.	.	.	.	.	8dd\J	8ff\J
!	!	!	!	!	!	!	!	!	!	!	!LO:LB:g=original
=11	=11	=11	=11	=11	=11	=11	=11	=11	=11	=11	=11
!	!	!	!LO:TX:a:t=P:problem:mixed beam	!LO:TX:a:t=P:problem:mixed beam	!	!	!	!	!	!	!
8C/L	.	2.ryy	8c/L	8e/L	2.ryy	2.ryy	2.r	.	2.ryy	16cc\LL	16ee\LL
.	.	.	.	.	.	.	.	.	.	16dd\	16ff\
8E/J	.	.	16cc\L	16cc\L	.	.	.	.	.	16ee\	16gg\
.	.	.	16b\JJ	16b\JJ	.	.	.	.	.	16dd\JJ	16ff\JJ
!	!	!	!LO:TX:a:t=P:problem:mixed beam	!LO:TX:a:t=P:problem:mixed beam	!	!	!	!	!	!	!
4G\	5 4	.	8cc\L	8cc/L	.	.	.	.	.	8cc\L	16ee\LL
.	.	.	.	.	.	.	.	.	.	.	16ff\
!	!	!	!	!	!	!	!	!	!	!LO:SIC:custos cc:v	!
.	.	.	8e/J	8e/J	.	.	.	.	.	8g\J	16ee\
.	.	.	.	.	.	.	.	.	.	.	16dd\JJ
!	!	!	!LO:TX:a:t=P:problem:mixed beam	!	!	!	!	!	!	!	!
!	!	!	!	!	!	!	!	!	!	!LO:LB:g=original	!
4GG/	X 3	.	8d/L	8d/L	.	.	.	.	.	8cc\L	8ee\L
.	.	.	8b\J	8b/J	.	.	.	.	.	8g\J	8dd\J
=12	=12	=12	=12	=12	=12	=12	=12-	=12	=12	=12	=12
2C/	.	2.ryy	4cc\	4cc\	2.ryy	2.ryy	4r	.	2.ryy	4e/	4cc\
.	.	.	4r	4r	.	.	4e\	O	.	4r	4r
4c\	.	.	4r	4r	.	.	4c/	Be-	.	4r	4r
!	!	!	!LO:LB:g=original	!	!	!	!	!	!	!	!
=13	=13	=13	=13	=13	=13	=13	=13	=13	=13	=13	=13
!	!	!	!	!	!	!	!	!	!	!LO:TX:a:t=31.	!LO:TX:a:t=31.
!	!	!	!	!	!	!	!	!	!	!LO:N:vis=00	!LO:N:vis=00
4B\	X 6	2.ryy	2.r	2.r	2.ryy	2.ryy	4g\	-a-	2.ryy	0.r	0.r
8G\L	.	.	.	.	.	.	(>8g\L	-ta	.	.	.
8A\J	X 6	.	.	.	.	.	8f\J)	.	.	.	.
4B\	X 6	.	.	.	.	.	(>8e\L	ſcho-	.	.	.
.	X 5	.	.	.	.	.	8d\J)	.	.	.	.
=14	=14	=14	=14-	=14	=14	=14	=14	=14	=14	=14	=14
4c\	.	2.ryy	4r	4r	2.ryy	2.ryy	4.e\	-la-	2.ryy	.	.
4C/	.	.	8r	8r	.	.	.	.	.	.	.
.	.	.	8cc\L	8cc\L	.	.	8d\	-ſti-	.	.	.
4D/	.	.	8ee\	8ee\	.	.	4c/	-ca	.	.	.
.	.	.	8gg\J	8gg\J	.	.	.	.	.	.	.
=15	=15	=15	=15	=15	=15	=15	=15	=15	=15	=15	=15
!	!	!	!LO:TX:a:t=P:problem:mixed beam	!	!	!	!	!	!	!	!
!	!	!	!	!	!	!	!LO:N:vis=0	!	!	!	!
4E\	6 5-	2.ryy	8b-X/L	8b-X\L	2.ryy	2.ryy	1.r	.	2.ryy	.	.
.	.	.	16gg\L	16gg\L	.	.	.	.	.	.	.
.	.	.	16ff\JJ	16ff\JJ	.	.	.	.	.	.	.
4E\	: :	.	8gg\L	8gg\L	.	.	.	.	.	.	.
.	.	.	8b-X\J	8b-X\J	.	.	.	.	.	.	.
4E\	.	.	8gg\L	8gg\L	.	.	.	.	.	.	.
.	.	.	8b-X\J	8b-X\J	.	.	.	.	.	.	.
=16	=16	=16	=16	=16	=16	=16	=16	=16	=16	=16	=16
!	!	!	!LO:TX:a:t=P:problem:mixed beam	!LO:TX:a:t=P:problem:mixed beam	!	!	!	!	!	!	!
4F\	.	2.ryy	8a/L	8a/L	2.ryy	2.ryy	.	.	2.ryy	.	.
.	.	.	16aa\L	16aa\L	.	.	.	.	.	.	.
.	.	.	16gg\JJ	16gg\JJ	.	.	.	.	.	.	.
4F#X\	6 5	.	8aa\L	8aa\L	.	.	.	.	.	.	.
.	.	.	8cc\J	8cc\J	.	.	.	.	.	.	.
4F#\	: :	.	8aa\L	8aa\L	.	.	.	.	.	.	.
.	.	.	8cc\J	8cc\J	.	.	.	.	.	.	.
!LO:LB:g=original	!	!	!	!LO:LB:g=original	!	!	!	!	!	!	!
=17	=17	=17	=17	=17	=17	=17	=17	=17	=17	=17	=17
!	!	!	!LO:TX:a:t=P:problem:mixed beam	!LO:TX:a:t=P:problem:mixed beam	!	!	!	!	!	!	!
!	!	!	!	!	!	!	!	!	!	!LO:N:vis=00	!LO:N:vis=00
8G\L	.	2.ryy	8b/L	8b/L	2.ryy	2.ryy	2.r	.	2.ryy	0.r	0.r
8A\	.	.	16bb\L	16bb\L	.	.	.	.	.	.	.
.	.	.	16aa\JJ	16aa\JJ	.	.	.	.	.	.	.
8G\	.	.	8bb\L	8bb\L	.	.	.	.	.	.	.
8F\	.	.	8dd\J	8dd\J	.	.	.	.	.	.	.
!	!	!	!LO:TX:a:t=P:problem:mixed beam	!	!	!	!	!	!	!	!
8E\	.	.	8bb\L	8bb\L	.	.	.	.	.	.	.
8D\J	.	.	8b/J	8dd\J	.	.	.	.	.	.	.
=18	=18	=18	=18	=18	=18	=18	=18	=18	=18	=18	=18
2C/	.	2.ryy	4cc\	4ee\	2.ryy	2.ryy	4r	.	2.ryy	.	.
.	.	.	4r	4cc\	.	.	4e\	O!	.	.	.
4c\	.	.	4r	4r	.	.	4c/	Be-	.	.	.
!	!	!	!LO:LB:g=original	!	!	!	!	!	!	!	!
=19	=19	=19	=19	=19	=19	=19	=19	=19	=19	=19	=19
!	!	!	!LO:N:vis=00	!LO:N:vis=00	!	!	!	!	!	!	!
4B\	X 6	2.ryy	0.r	0.r	2.ryy	2.ryy	4g\	-a-	2.ryy	.	.
8G\L	.	.	.	.	.	.	(>8g\L	-ta	.	.	.
8A\J	X 6	.	.	.	.	.	8f\J)	.	.	.	.
4B\	X 6	.	.	.	.	.	(>8e\L	ſcho-	.	.	.
.	X 5	.	.	.	.	.	8d\J)	.	.	.	.
=20	=20	=20	=20	=20	=20	=20	=20	=20	=20	=20	=20
4c\	.	2.ryy	.	.	2.ryy	2.ryy	4.e\	-la-	2.ryy	.	.
8C/L	.	.	.	.	.	.	.	.	.	.	.
8D/J	.	.	.	.	.	.	8d\	-ſti-	.	.	.
4E\	.	.	.	.	.	.	4c/	-ca	.	.	.
!	!	!	!	!	!	!	!LO:LB:g=original	!	!	!	!
=21	=21	=21	=21	=21	=21	=21	=21	=21	=21	=21	=21
!	!	!	!	!	!	!	!	!	!	!LO:N:vis=00	!LO:N:vis=00
2F\	.	2.ryy	.	.	2.ryy	2.ryy	(>8a\L	quae	2.ryy	0.r	0.r
.	.	.	.	.	.	.	8b-X\J)	.	.	.	.
.	.	.	.	.	.	.	(>8a\L	re-	.	.	.
.	.	.	.	.	.	.	8g\J)	.	.	.	.
4F\	.	.	.	.	.	.	(>8f\L	-gna	.	.	.
.	.	.	.	.	.	.	8e\J)	.	.	.	.
=22	=22	=22	=22	=22	=22	=22	=22	=22	=22	=22	=22
*	*	*	*	*	*	*	*2\right	*	*	*	*
8G\L	.	2.ryy	.	.	2.ryy	2.ryy	2d\	te-	2.ryy	.	.
8A\	.	.	.	.	.	.	.	.	.	.	.
8G\	.	.	.	.	.	.	.	.	.	.	.
8F\	.	.	.	.	.	.	.	.	.	.	.
8E\	.	.	.	.	.	.	4d\	-nes	.	.	.
8D\J	.	.	.	.	.	.	.	.	.	.	.
=23	=23	=23	=23	=23	=23	=23	=23	=23	=23	=23	=23
!	!	!	!LO:N:vis=00	!LO:N:vis=00	!	!	!	!	!	!	!
2C/	.	2.ryy	0.r	0.r	2.ryy	2.ryy	(>8g\L	quae	2.ryy	.	.
.	.	.	.	.	.	.	8a\J)	.	.	.	.
.	.	.	.	.	.	.	(>8g\L	re-	.	.	.
.	.	.	.	.	.	.	8f\J)	.	.	.	.
4C/	.	.	.	.	.	.	(>8e\L	-gna	.	.	.
.	.	.	.	.	.	.	8d\J)	.	.	.	.
=24	=24	=24	=24	=24	=24	=24	=24	=24	=24	=24	=24
8F\L	.	2.ryy	.	.	2.ryy	2.ryy	2c/	te-	2.ryy	.	.
8G\	.	.	.	.	.	.	.	.	.	.	.
8F\	.	.	.	.	.	.	.	.	.	.	.
8E\	.	.	.	.	.	.	.	.	.	.	.
8D\	.	.	.	.	.	.	4c/	-nes	.	.	.
8C\J	.	.	.	.	.	.	.	.	.	.	.
=25	=25	=25	=25	=25	=25	=25	=25	=25	=25	=25	=25
!	!	!	!	!	!	!	!	!	!	!LO:N:vis=00	!LO:N:vis=00
8BB/L	X 6	2.ryy	.	.	2.ryy	2.ryy	4d\	quae	2.ryy	0.r	0.r
8C/	.	.	.	.	.	.	.	.	.	.	.
8BB/	.	.	.	.	.	.	4d\	re-	.	.	.
8AA/	.	.	.	.	.	.	.	.	.	.	.
8BB/	.	.	.	.	.	.	4g\	-gna	.	.	.
8GG/J	.	.	.	.	.	.	.	.	.	.	.
=26	=26	=26	=26	=26	=26	=26	=26	=26	=26	=26	=26
8D\L	X #	2.ryy	.	.	2.ryy	2.ryy	2a\	te-	2.ryy	.	.
8E\	.	.	.	.	.	.	.	.	.	.	.
8D\	.	.	.	.	.	.	.	.	.	.	.
8C\	.	.	.	.	.	.	.	.	.	.	.
8BB\	X 6	.	.	.	.	.	4b\	-nes	.	.	.
8GG\J	.	.	.	.	.	.	.	.	.	.	.
!LO:LB:g=original	!	!	!	!	!	!	!	!	!	!	!
=27	=27	=27	=27	=27	=27	=27	=27	=27	=27	=27	=27
!	!	!	!LO:N:vis=0	!LO:N:vis=0	!	!	!	!	!	!	!
8D\L	X #	2.ryy	1.r	1.r	2.ryy	2.ryy	4a\	cae-	2.ryy	.	.
8E\	.	.	.	.	.	.	.	.	.	.	.
8F#X\	.	.	.	.	.	.	8a\	-li-	.	.	.
8E\	.	.	.	.	.	.	8g\	-ca	.	.	.
8F#X\	.	.	.	.	.	.	4f#X\	be-	.	.	.
8D\J	.	.	.	.	.	.	.	.	.	.	.
=28	=28	=28	=28	=28	=28	=28	=28	=28	=28	=28	=28
8GG/L	.	2.ryy	.	.	2.ryy	2.ryy	4b\	-a-	2.ryy	.	.
8BB/	.	.	.	.	.	.	.	.	.	.	.
8C/	.	.	.	.	.	.	4a\	-ta	.	.	.
8AA/	.	.	.	.	.	.	.	.	.	.	.
8BB/	X 6	.	.	.	.	.	4g\	ſcho-	.	.	.
8C/J	X 5	.	.	.	.	.	.	.	.	.	.
!	!	!	!	!	!	!	!LO:LB:g=original	!	!	!	!
=29	=29	=29	=29-	=29	=29	=29	=29	=29	=29	=29	=29
!	!	!	!	!	!	!	!	!	!	!LO:N:vis=00	!LO:N:vis=00
2D/	X #	2.ryy	4r	4r	2.ryy	2.ryy	4.f#X\	-la-	2.ryy	0.r	0.r
.	.	.	8r	8r	.	.	.	.	.	.	.
.	.	.	8dd\L	8dd\L	.	.	8e\	-ſti-	.	.	.
4E\	.	.	8ff#X\	8ff#X\	.	.	4d\	-ca	.	.	.
.	.	.	8aa\J	8aa\J	.	.	.	.	.	.	.
=30	=30	=30	=30	=30	=30	=30	=30	=30	=30	=30	=30
!	!	!	!	!	!	!	!LO:N:vis=0	!	!	!	!
4F#X\	X 5n	2.ryy	8cc\L	8cc\L	2.ryy	2.ryy	1.r	.	2.ryy	.	.
.	.	.	16aa\L	16aa\L	.	.	.	.	.	.	.
.	.	.	16gg\JJ	16gg\JJ	.	.	.	.	.	.	.
4r	.	.	8aa\L	8aa\L	.	.	.	.	.	.	.
.	.	.	8cc\J	8cc\J	.	.	.	.	.	.	.
4r	.	.	8aa\L	8aa\L	.	.	.	.	.	.	.
.	.	.	8cc\J	8cc\J	.	.	.	.	.	.	.
=31	=31	=31	=31	=31	=31	=31	=31	=31	=31	=31	=31
4F#X\	X 5	2.ryy	8a/L	8a/L	2.ryy	2.ryy	.	.	2.ryy	.	.
.	.	.	(<16cc/L	(<16cc/L	.	.	.	.	.	.	.
.	.	.	16b/JJ)	16b/JJ)	.	.	.	.	.	.	.
!	!	!	!	!LO:SIC:custos cc:v	!	!	!	!	!	!	!
!	!	!	!	!LO:LB:g=original	!	!	!	!	!	!	!
4F#\	X :	.	8cc\L	8cc\L	.	.	.	.	.	.	.
.	.	.	(>16ff#X\L	(>16ff#X\L	.	.	.	.	.	.	.
.	.	.	16ee\JJ)	16ee\JJ)	.	.	.	.	.	.	.
4F#\	.	.	8ff#X\L	8ff#X\L	.	.	.	.	.	.	.
.	.	.	(>16aa\L	(>16aa\L	.	.	.	.	.	.	.
.	.	.	16gg\JJ)	16gg\JJ)	.	.	.	.	.	.	.
=32	=32	=32	=32	=32	=32	=32	=32	=32	=32	=32	=32
4F#X\	X 5	2.ryy	8aa\L	8aa\L	2.ryy	2.ryy	2.r	.	2.ryy	.	.
.	.	.	8cc\	8cc\	.	.	.	.	.	.	.
!LO:TX:a:t=P:problem:mixed beam	!	!	!	!	!	!	!	!	!	!	!
8G\L	.	.	8b\	8b\	.	.	.	.	.	.	.
8C\	X 6	.	8a\J	8a\J	.	.	.	.	.	.	.
8D\	6 4	.	8g/L	8b/L	.	.	.	.	.	.	.
8DD/J	5 #	.	8f#X/J	8a/J	.	.	.	.	.	.	.
=33	=33	=33	=33	=33	=33	=33	=33	=33	=33	=33	=33
!	!	!	!	!	!	!	!	!	!	!LO:N:vis=00	!LO:N:vis=00
2.GG/	.	2.ryy	4g/	4g/	2.ryy	2.ryy	4g\	ſti-	2.ryy	0.r	0.r
.	.	.	4r	4r	.	.	(>8g\L	-pa-	.	.	.
.	.	.	.	.	.	.	8f#X\J)	.	.	.	.
.	.	.	4r	4r	.	.	(>8g\L	-ta	.	.	.
.	.	.	.	.	.	.	8d\J)	.	.	.	.
!	!	!	!LO:LB:g=original	!	!	!	!	!	!	!	!
=34	=34	=34	=34	=34	=34	=34	=34	=34	=34	=34	=34
!	!	!	!LO:N:vis=00	!LO:N:vis=00	!	!	!	!	!	!	!
4c\	.	2.ryy	0.r	0.r	2.ryy	2.ryy	(>8e\L	cho-	2.ryy	.	.
.	.	.	.	.	.	.	8d\	.	.	.	.
8c\L	.	.	.	.	.	.	8c\	.	.	.	.
8B\J	X 6	.	.	.	.	.	8d\J)	.	.	.	.
4c\	.	.	.	.	.	.	(>8e\L	-ris	.	.	.
.	.	.	.	.	.	.	8f\J)	.	.	.	.
=35	=35	=35	=35	=35	=35	=35	=35	=35	=35	=35	=35
8B\L	X 6	2.ryy	.	.	2.ryy	2.ryy	4.g\	Vir-	2.ryy	.	.
8A\	.	.	.	.	.	.	.	.	.	.	.
8G\	.	.	.	.	.	.	.	.	.	.	.
8A\	.	.	.	.	.	.	8g\	-gi-	.	.	.
8B\	.	.	.	.	.	.	4g\	-num	.	.	.
8G\J	.	.	.	.	.	.	.	.	.	.	.
!LO:LB:g=original	!	!	!	!	!	!	!	!	!	!	!
=36	=36	=36	=36	=36	=36	=36	=36	=36	=36	=36	=36
2C/	.	2.ryy	.	.	2.ryy	2.ryy	(>8g\L	dul-	2.ryy	.	.
.	.	.	.	.	.	.	8a\J)	.	.	.	.
.	.	.	.	.	.	.	(>8g\L	-ces	.	.	.
.	.	.	.	.	.	.	8f\J)	.	.	.	.
4r	.	.	.	.	.	.	(>8e\L	hy-	.	.	.
.	.	.	.	.	.	.	8d\J)	.	.	.	.
=37	=37	=37	=37	=37	=37	=37	=37	=37	=37	=37	=37
!	!	!	!	!	!	!	!	!	!	!LO:N:vis=00	!LO:N:vis=00
8A\L	X 3	2.ryy	.	.	2.ryy	2.ryy	2c/	-mnos	2.ryy	0.r	0.r
8B-X\	.	.	.	.	.	.	.	.	.	.	.
8A\	.	.	.	.	.	.	.	.	.	.	.
8G\	.	.	.	.	.	.	.	.	.	.	.
8F\	.	.	.	.	.	.	4r	.	.	.	.
8E\J	.	.	.	.	.	.	.	.	.	.	.
!	!	!	!	!	!	!	!LO:LB:g=original	!	!	!	!
=38	=38	=38	=38	=38	=38	=38	=38	=38	=38	=38	=38
!	!	!	!LO:N:vis=00	!LO:N:vis=00	!	!	!	!	!	!	!
2D/	5 3	2.ryy	0.r	0.r	2.ryy	2.ryy	(>8a\L	dul-	2.ryy	.	.
.	.	.	.	.	.	.	8b-X\J)	.	.	.	.
.	.	.	.	.	.	.	(>8a\L	-ces	.	.	.
.	.	.	.	.	.	.	8g\J)	.	.	.	.
4r	.	.	.	.	.	.	(>8f\L	hy-	.	.	.
.	.	.	.	.	.	.	8e\J)	.	.	.	.
=39	=39	=39	=39	=39	=39	=39	=39	=39	=39	=39	=39
8G\L	.	2.ryy	.	.	2.ryy	2.ryy	2d\	-mnos,	2.ryy	.	.
8A\	.	.	.	.	.	.	.	.	.	.	.
8G\	.	.	.	.	.	.	.	.	.	.	.
8F\	.	.	.	.	.	.	.	.	.	.	.
8E\	.	.	.	.	.	.	4g\	ca-	.	.	.
8D\J	.	.	.	.	.	.	.	.	.	.	.
=40	=40	=40	=40	=40	=40	=40	=40	=40	=40	=40	=40
2C/	.	2.ryy	.	.	2.ryy	2.ryy	4.g\	-nen-	2.ryy	.	.
.	.	.	.	.	.	.	8f\	-ti-	.	.	.
4c\	.	.	.	.	.	.	4e\	-um	.	.	.
=41	=41	=41	=41	=41	=41	=41	=41	=41	=41	=41	=41
!	!	!	!	!	!	!	!	!	!	!LO:N:vis=0	!LO:N:vis=0
4F\	X 6	2.ryy	.	.	2.ryy	2.ryy	4d\	ca-	2.ryy	1.r	1.r
4G\	5 4	.	.	.	.	.	4.dT\	-nen-	.	.	.
4GG/	X 3	.	.	.	.	.	.	.	.	.	.
.	.	.	.	.	.	.	8c/	-ti-	.	.	.
=42	=42	=42	=42	=42	=42	=42	=42	=42	=42	=42	=42
!	!	!	!LO:N:vis=0	!LO:N:vis=0	!	!	!	!	!	!	!
2C/	.	2.ryy	1.r	1.r	2.ryy	2.ryy	4c/	-um.	2.ryy	.	.
.	.	.	.	.	.	.	4e\	O!	.	.	.
4C/	.	.	.	.	.	.	4c\	Be-	.	.	.
=43	=43	=43	=43	=43	=43	=43	=43	=43	=43	=43	=43
4BB/	X 6	2.ryy	.	.	2.ryy	2.ryy	4g\	-a-	2.ryy	2.r	2.r
8GG/L	.	.	.	.	.	.	(>8g\L	-ta	.	.	.
8AA/J	X 6	.	.	.	.	.	8f\J)	.	.	.	.
4BB/	X 6	.	.	.	.	.	(>8e\L	ſcho-	.	.	.
.	.	.	.	.	.	.	8d\J)	.	.	.	.
!	!	!	!	!	!	!	!LO:LB:g=original	!	!	!	!
=44	=44	=44	=44-	=44	=44	=44	=44	=44	=44	=44	=44
2C/	.	2.ryy	8cc\L	8cc\L	2.ryy	2.ryy	4.g 4.e\	-la-	2.ryy	8c/L	8c/L
.	.	.	16cc\L	16cc\L	.	.	.	.	.	16c/L	16c/L
.	.	.	16dd\JJ	16dd\JJ	.	.	.	.	.	16c/JJ	16c/JJ
!	!	!	!LO:TX:a:t=P:problem:mixed beam	!LO:TX:a:t=P:problem:mixed beam	!	!	!	!	!	!	!
.	.	.	8cc\L	8cc\L	.	.	.	.	.	8c/L	8e/L
.	.	.	8c/J	8c/J	.	.	8f 8d\	-ſti-	.	8c/J	8g/J
4c\	.	.	8cc\L	8cc\L	.	.	4e 4c\	-ca.	.	8e/L	8cc\L
.	.	.	16b\L	16b\L	.	.	.	.	.	8c/J	16g\L
.	.	.	16cc\JJ	16cc\JJ	.	.	.	.	.	.	16cc\JJ
!	!	!	!	!LO:LB:g=original	!	!	!	!	!	!	!
=45	=45	=45	=45	=45	=45	=45	=45	=45	=45	=45	=45
!	!	!	!	!	!	!	!LO:N:vis=00	!	!	!	!
4B\	6 3	2.ryy	8dd\L	8dd\L	2.ryy	2.ryy	0.r	.	2.ryy	8g/L	8dd\L
.	.	.	16dd\L	16dd\L	.	.	.	.	.	16g/L	16dd\L
.	.	.	16ee\JJ	16ee\JJ	.	.	.	.	.	16g/JJ	16ee\JJ
!	!	!	!LO:TX:a:t=P:problem:mixed beam	!LO:TX:a:t=P:problem:mixed beam	!	!	!	!	!	!	!
4A\	X 4	.	8dd\L	8dd\L	.	.	.	.	.	8g/L	8dd\L
.	.	.	8d/J	8d/J	.	.	.	.	.	8g/J	8g\J
4G\	.	.	8b/L	8dd\L	.	.	.	.	.	8g/L	8dd\L
.	.	.	16a/L	16cc\L	.	.	.	.	.	16e/L	16cc\L
.	.	.	16b/JJ	16dd\JJ	.	.	.	.	.	16g/JJ	16dd\JJ
=46	=46	=46	=46	=46	=46	=46	=46	=46	=46	=46	=46
8C/L	.	2.ryy	8cc\L	8ee\	2.ryy	2.ryy	.	.	2.ryy	4cc\	4ee\
16C/L	.	.	16ee\L	4gg\	.	.	.	.	.	.	.
16D/JJ	.	.	16dd\JJ	.	.	.	.	.	.	.	.
8C/L	.	.	8ee\	.	.	.	.	.	.	4r	4r
8CC/J	X 7-	.	4g/	4b-X/	.	.	.	.	.	.	.
!LO:SIC:custos C:v	!	!	!	!	!	!	!	!	!	!	!
!LO:LB:g=original	!	!	!	!	!	!	!	!	!	!	!
8C/L	X 7-	.	.	.	.	.	.	.	.	4r	4r
8C/J	.	.	16f/LL	16a/LL	.	.	.	.	.	.	.
.	.	.	16e/JJ	16g/JJ	.	.	.	.	.	.	.
!	!	!	!	!	!	!	!	!	!	!	!LO:LB:g=original
=47	=47	=47	=47	=47	=47	=47	=47	=47	=47	=47	=47
!	!	!	!LO:TX:a:t=P:problem:mixed beam	!	!	!	!	!	!	!	!
!	!	!	!	!	!	!	!	!	!	!LO:N:vis=0	!LO:N:vis=0
8F\L	.	2.ryy	8f/L	8a/	2.ryy	2.ryy	.	.	2.ryy	1.r	1.r
16D\L	X #	.	16ff#X\L	4aa\	.	.	.	.	.	.	.
16E\JJ	.	.	16ee\JJ	.	.	.	.	.	.	.	.
!LO:TX:a:t=P:problem:mixed beam	!	!	!	!	!	!	!	!	!	!	!
8D\L	7 #	.	8ff#X\	.	.	.	.	.	.	.	.
8DD/J	.	.	4a/	4cc\	.	.	.	.	.	.	.
8D\L	7 #	.	.	.	.	.	.	.	.	.	.
8D\J	.	.	16g/LL	16bn/LL	.	.	.	.	.	.	.
.	.	.	16f#X/JJ	16a/JJ	.	.	.	.	.	.	.
!	!	!	!LO:LB:g=original	!	!	!	!	!	!	!	!
=48	=48	=48	=48	=48	=48	=48	=48	=48	=48	=48	=48
4G\	.	2.ryy	8g/L	8b\L	2.ryy	2.ryy	.	.	2.ryy	.	.
.	.	.	(<16b/L	16dd\L	.	.	.	.	.	.	.
.	.	.	16a/JJ)	16cc\JJ	.	.	.	.	.	.	.
4GG/	7 5	.	8b\L	8dd\L	.	.	.	.	.	.	.
.	.	.	(>16dd\L	16ff\L	.	.	.	.	.	.	.
.	.	.	16cc\JJ)	16ee\JJ	.	.	.	.	.	.	.
!	!	!	!	!LO:SIC:custos ff:v	!	!	!	!	!	!	!
!	!	!	!	!LO:LB:g=original	!	!	!	!	!	!	!
4G\	.	.	8dd\L	8ff\L	.	.	.	.	.	.	.
.	.	.	8b\J	8b\J	.	.	.	.	.	.	.
=49	=49	=49	=49	=49	=49	=49	=49	=49	=49	=49	=49
!	!	!	!	!LO:TX:a:t=P:problem:mixed beam	!	!	!	!	!	!	!
!	!	!	!	!	!	!	!LO:N:vis=00	!	!	!	!
4F\	.	2.ryy	4cc\	8ff\L	2.ryy	2.ryy	0.r	.	2.ryy	2.r	2.r
.	.	.	.	8a/J	.	.	.	.	.	.	.
!	!	!	!	!LO:TX:a:t=P:problem:mixed beam	!	!	!	!	!	!	!
4E\	X 6	.	4cc\	8ff\L	.	.	.	.	.	.	.
.	.	.	.	8g/J	.	.	.	.	.	.	.
!	!	!	!	!LO:TX:a:t=P:problem:mixed beam	!	!	!	!	!	!	!
4D/	X 6	.	4b/	8ff\L	.	.	.	.	.	.	.
.	.	.	.	8f/J	.	.	.	.	.	.	.
=50	=50	=50	=50	=50	=50	=50	=50	=50	=50	=50	=50-
!	!	!	!	!LO:TX:a:t=P:problem:mixed beam	!	!	!	!	!	!	!
2C/	.	2.ryy	8cc\L	8e/L	2.ryy	2.ryy	.	.	2.ryy	8e/L	8cc\L
.	.	.	16cc\L	16cc\L	.	.	.	.	.	16e/L	16cc\L
.	.	.	16dd\JJ	16dd\JJ	.	.	.	.	.	16g/JJ	16dd\JJ
!	!	!	!LO:TX:a:t=P:problem:mixed beam	!LO:TX:a:t=P:problem:mixed beam	!	!	!	!	!	!	!
.	.	.	8cc\L	8cc\L	.	.	.	.	.	8e/L	8cc\L
.	.	.	8c/J	8c/J	.	.	.	.	.	8c/J	8g\J
4c\	.	.	8cc\L	8cc\L	.	.	.	.	.	8e/L	8cc\L
.	.	.	16b\L	16b\L	.	.	.	.	.	16g/L	16dd\L
.	.	.	16cc\JJ	16cc\JJ	.	.	.	.	.	16e/JJ	16cc\JJ
!	!	!	!	!	!	!	!	!	!	!LO:LB:g=original	!
=51	=51	=51	=51	=51	=51	=51	=51	=51	=51	=51	=51
4B\	X 6	2.ryy	8dd\L	8dd\L	2.ryy	2.ryy	.	.	2.ryy	8g/L	8dd\L
.	.	.	16dd\L	16dd\L	.	.	.	.	.	16g/L	16dd\L
.	.	.	16ee\JJ	16ee\JJ	.	.	.	.	.	16g/JJ	16ee\JJ
!	!	!	!LO:TX:a:t=P:problem:mixed beam	!LO:TX:a:t=P:problem:mixed beam	!	!	!	!	!	!	!
4A\	X 4	.	8dd\L	8dd\L	.	.	.	.	.	8g/L	8dd\L
.	.	.	8d/J	8d/J	.	.	.	.	.	8g/J	8g\J
4G\	.	.	8dd\L	8dd\L	.	.	.	.	.	8g/L	8dd\L
.	.	.	16cc\L	16cc\L	.	.	.	.	.	16e/L	16cc\L
.	.	.	16dd\JJ	16dd\JJ	.	.	.	.	.	16g/JJ	16dd\JJ
!	!	!	!LO:LB:g=original	!LO:LB:g=original	!	!	!	!	!	!	!
=52	=52	=52	=52	=52	=52	=52	=52	=52	=52	=52	=52
2c\	.	2.ryy	8ee\L	8ee\L	2.ryy	2.ryy	.	.	2.ryy	4cc\	4ee\
.	.	.	16ee\L	16gg\L	.	.	.	.	.	.	.
.	.	.	16ff\JJ	16ff\JJ	.	.	.	.	.	.	.
.	.	.	16gg\LL	16ee\LL	.	.	.	.	.	4r	4r
.	.	.	16ff\	16dd\	.	.	.	.	.	.	.
.	.	.	16ee\	16cc\	.	.	.	.	.	.	.
.	.	.	16dd\JJ	16b\JJ	.	.	.	.	.	.	.
4C/	.	.	16ee\LL	16cc\LL	.	.	.	.	.	4r	4r
.	.	.	16dd\	16b\	.	.	.	.	.	.	.
.	.	.	16cc\	16a\	.	.	.	.	.	.	.
.	.	.	16b\JJ	16g\JJ	.	.	.	.	.	.	.
=53	=53	=53	=53	=53	=53	=53	=53	=53	=53	=53	=53
!	!	!	!	!	!	!	!LO:N:vis=0	!	!	!	!
2F\	.	2.ryy	16cc\LL	16a/LL	2.ryy	2.ryy	1.r	.	2.ryy	4r	4r
.	.	.	16b\	16g/	.	.	.	.	.	.	.
.	.	.	16a\	16f/	.	.	.	.	.	.	.
.	.	.	16g\JJ	16e/JJ	.	.	.	.	.	.	.
.	.	.	16f/LL	16f/LL	.	.	.	.	.	8r	8r
.	.	.	16e/	16e/	.	.	.	.	.	.	.
!	!	!	!	!	!	!	!	!	!	!LO:TX:a:t=P:problem:mixed beam	!
.	.	.	16d/	16d/	.	.	.	.	.	8g/L	8cc\L
.	.	.	16c/JJ	16c/JJ	.	.	.	.	.	.	.
4BB/	X 6	.	8e/L	8g/L	.	.	.	.	.	8ee\	8gg\
.	X 5	.	8d/J	8f/J	.	.	.	.	.	8dd\J	8ff\J
=54	=54	=54	=54	=54	=54	=54	=54	=54	=54	=54	=54
!	!	!	!LO:TX:a:t=P:problem:mixed beam	!LO:TX:a:t=P:problem:mixed beam	!	!	!	!	!	!	!
8C/L	.	2.ryy	8c/L	8e/L	2.ryy	2.ryy	.	.	2.ryy	16cc\LL	16ee\LL
.	.	.	.	.	.	.	.	.	.	16dd\	16ff\
8F/J	6 5	.	16cc\L	16cc\L	.	.	.	.	.	16ee\	16gg\
.	.	.	16b\JJ	16b\JJ	.	.	.	.	.	16dd\JJ	16ff\JJ
!	!	!	!LO:TX:a:t=P:problem:mixed beam	!LO:TX:a:t=P:problem:mixed beam	!	!	!	!	!	!	!
4G\	5 4	.	8cc/L	8cc\L	.	.	.	.	.	8cc\L	16ee\LL
.	.	.	.	.	.	.	.	.	.	.	16ff\
.	.	.	8e/J	8e/J	.	.	.	.	.	8g\J	16ee\
.	.	.	.	.	.	.	.	.	.	.	16dd\JJ
!	!	!	!	!LO:TX:a:t=P:problem:mixed beam	!	!	!	!	!	!	!
4GG/	X 3	.	8d/L	8d/L	.	.	.	.	.	16e/LL	8ee\L
.	.	.	.	.	.	.	.	.	.	16c/	.
.	.	.	8b/J	8b\J	.	.	.	.	.	16e/	8dd\J
.	.	.	.	.	.	.	.	.	.	16g/JJ	.
=55	=55	=55	=55	=55	=55	=55	=55	=55	=55	=55	=55
!	!	!	!	!LO:TX:b:i:t=Segue Aria	!	!	!	!	!	!	!
4C;</	.	2.ryy	4cc\	4cc\	2.ryy	2.ryy	2.r	.	2.ryy	4e/	4cc\
!	!	!	!LO:TX:b:i:t=Segue Aria	!	!	!	!	!	!	!	!
4r	.	.	4r	4r	.	.	.	.	.	4r	4r
4r	.	.	4r	4r	.	.	.	.	.	4r	4r
!	!	!	!	!LO:SIC:custos g:v	!	!	!	!	!	!	!
=||	=||	=||	=||	=||	=||	=||	=||	=||	=||	=||	=||
*-	*-	*-	*-	*-	*-	*-	*-	*-	*-	*-	*-
!!!system-decoration: [g1][g2][g3]s10
!!!RDF**kern: > = above
!!!RDF**kern: < = below
!!!ENC: Andrzej Borzym
!!!END: 2020-05-06
!!!EED: Antoni Szymański
!!!EST: 2020-11-09
